!!!COM: Kellner, Johann Ludwig
!!!OTL: Fuga
!!!SCT: O10:02
!!!SCA: Rolf Dietrich Claus, Johann Peter Kellner - Studien zu Leben und Werk.
**kern	**kern	**kern	**kern
*MM60	*MM60	*MM60	*MM60
*k[]	*k[]	*k[]	*k[]
*M4/4	*M4/4	*M4/4	*M4/4
*tb32	*tb32	*tb32	*tb32
=1	=1	=1	=1
1r	1r	8r	1r
.	.	8d	.
.	.	8d	.
.	.	8d	.
.	.	8e	.
.	.	8A	.
.	.	16a	.
.	.	16g	.
.	.	16f	.
.	.	16e	.
=2	=2	=2	=2
1r	1r	8f	1r
.	.	8d	.
.	.	8b-	.
.	.	8d	.
.	.	8c#	.
.	.	8b-	.
.	.	8a	.
.	.	8c	.
=3	=3	=3	=3
1r	1r	8B	1r
.	.	8a	.
.	.	8g	.
.	.	8B-	.
.	.	8A	.
.	.	8g	.
.	.	8f	.
.	.	16e	.
.	.	16d	.
=4	=4	=4	=4
1r	2r	16g	1r
.	.	16f	.
.	.	16e	.
.	.	16d	.
.	.	8.e	.
.	.	32d	.
.	.	32e	.
.	8r	8d	.
.	8a	16c	.
.	.	16B	.
.	8a	16c	.
.	.	16B	.
.	8a	16c	.
.	.	[16A	.
=5	=5	=5	=5
1r	8b	16A]	1r
.	.	16A	.
.	8e	16G#	.
.	.	16F#	.
.	16ee	16G#	.
.	16dd	16B	.
.	16cc	16A	.
.	16b	16G#	.
.	8cc	16A	.
.	.	16e	.
.	8a	16d	.
.	.	16c	.
.	8ff	16d	.
.	.	16e	.
.	8a	16d	.
.	.	16c	.
=6	=6	=6	=6
1r	8g#	16B	1r
.	.	16d	.
.	8ff	16c	.
.	.	16B	.
.	8ee	16c	.
.	.	16d	.
.	8g	16c	.
.	.	16B	.
.	8f#	16A	.
.	.	16c	.
.	8ee	16B	.
.	.	16A	.
.	8dd	16B	.
.	.	16c	.
.	8f	16B	.
.	.	16A	.
=7	=7	=7	=7
1r	8e	16G#	1r
.	.	16e	.
.	8dd	16f#	.
.	.	16g#	.
.	8cc	8a	.
.	16b	8g	.
.	16a	.	.
.	16dd	8.f	.
.	16cc	.	.
.	16b	.	.
.	16a	16e	.
.	8.b	16d	.
.	.	16a	.
.	.	8g#	.
.	32a	.	.
.	32b	.	.
=8	=8	=8	=8
8r	8a	8g	1r
8dd	8a	16f	.
.	.	16e	.
8dd	8a	16f	.
.	.	16e	.
8dd	8a	16f	.
.	.	[16d	.
8ee	8g	16d]	.
.	.	16d	.
8a	[8e	16c#	.
.	.	16B	.
16aa	8e]	16c#	.
16gg	.	16e	.
16ff	8a	16d	.
16ee	.	16c#	.
=9	=9	=9	=9
8ff	4a	16d	1r
.	.	16e	.
8dd	.	16f	.
.	.	16d	.
8bb-	8r	16g	.
.	.	16a	.
8dd	8b-	16g	.
.	.	16f	.
8cc#	4a	16e	.
.	.	16g	.
8bb-	.	16f	.
.	.	16e	.
8aa	8r	16f	.
.	.	16g	.
8cc	8a	16f	.
.	.	16e	.
=10	=10	=10	=10
8b	4g	16d	1r
.	.	16f	.
8aa	.	16e	.
.	.	16d	.
8gg	8r	16e	.
.	.	16f	.
8b-	8g	16e	.
.	.	16d	.
8a	8e	16c#	.
.	.	16e	.
8gg	8a	16d	.
.	.	16c#	.
8ff	8dd	[4d	.
16ee	8cc	.	.
16dd	.	.	.
=11	=11	=11	=11
16gg	8.b-	4d_	2r
16ff	.	.	.
16ee	.	.	.
16dd	16a	.	.
8.ee	[4g	8d]	.
.	.	8c#	.
32dd	.	.	.
32ee	.	.	.
4dd	8g]	4d	8r
.	16f	.	8D
.	16e	.	.
4dd	16f	4A	8D
.	16e	.	.
.	16f	.	8D
.	[16d	.	.
=12	=12	=12	=12
8b-	8d]	8G	8E
8a	16c#	8E	8AA
.	16B	.	.
4a	16c#	8E	16A
.	16e	.	16G
.	16d	8A	16F
.	16c#	.	16E
8a	16d	4A	8F
.	16e	.	.
8dd	16f	.	8D
.	16d	.	.
8r	16g	8r	8B-
.	16a	.	.
8b-	16g	8B-	8D
.	16f	.	.
=13	=13	=13	=13
4a	16e	4E	8C#
.	16g	.	.
.	16f	.	8B-
.	16e	.	.
8r	16f	8r	8A
.	16g	.	.
8a	16f	8A	8C
.	16e	.	.
4g	16d	4D	8BB
.	16f	.	.
.	16e	.	8A
.	16d	.	.
8r	16e	8r	8G
.	16f	.	.
8g	16e	8G	8BB-
.	16d	.	.
=14	=14	=14	=14
8a	8c#	8C#	8AA
8cc#	8e	8A	8G
8dd	4a	8d	8F
8cc	.	8f#	16E
.	.	.	16D
8b-	8g	8d	16G
.	.	.	16F
8dd	8a	8f	16E
.	.	.	16D
8.dd	4g	4g	8.E
16cc#	.	.	32D
.	.	.	32E
=15	=15	=15	=15
2dd	8a	4f	16D
.	.	.	32d
.	.	.	32e
.	8f#	.	16d
.	.	.	16c
.	16g	4r	16B-
.	32b-	.	16d
.	32a	.	.
.	16g	.	16G
.	16f	.	16B-
2cc	16e	2r	16c
.	16g	.	16C
.	16c	.	16c
.	16e	.	16B-
.	16f	.	16A
.	32a	.	16c
.	32g	.	.
.	16f	.	16F
.	16e	.	16A
=16	=16	=16	=16
2b-	16d	1r	16B-
.	16f	.	16BB-
.	16B-	.	16B-
.	16d	.	16A
.	16e	.	16G
.	32g	.	16B-
.	32f	.	.
.	16e	.	16E
.	16d	.	16G
[4a	16c#	.	16A
.	16e	.	16AA
.	16A	.	16A
.	16c#	.	16G
8a]	8d	.	16F
.	.	.	16A
8g	8c#	.	16E
.	.	.	16A
=17	=17	=17	=17
8f	8d	1r	16D
.	.	.	16E
8d	8A	.	16F
.	.	.	16G
8c#	8A	.	16A
.	.	.	16B
8a	8e	.	16c#
.	.	.	16A
16g	8d	.	8B
16f	.	.	.
16e	8e	.	8c#
16g	.	.	.
8f	8d	.	16d
.	.	.	16e
8dd	8a	.	16f
.	.	.	16d
=18	=18	=18	=18
16cc	8g	1r	8e
16b-	.	.	.
16a	8a	.	8f#
16cc	.	.	.
8b-	8g	.	16g
.	.	.	16a
8gg	8dd	.	16b-
.	.	.	16g
16ff	8cc	.	8a
16ee	.	.	.
16dd	8dd	.	8b
16ff	.	.	.
16ee	8cc	.	16cc
16gg	.	.	16b
16ff	8cc	.	16a
16ee	.	.	16g
=19	=19	=19	=19
16ff	8cc	1r	16a
16aa	.	.	16cc
16ff	8cc	.	16f
16ee	.	.	16a
16dd	8b-	.	16b-
16ff	.	.	16a
16ee	8b-	.	16g
16dd	.	.	16f
16ee	8b-	.	16g
16gg	.	.	16b-
16ee	8b-	.	16e
16dd	.	.	16g
16cc#	8a	.	16a
16ee	.	.	16g
16dd	8a	.	16f
16cc#	.	.	16e
=20	=20	=20	=20
16dd	4a	1r	16f
16ff	.	.	16a
16dd	.	.	16f
16cc	.	.	16e
16b-	4f	.	16d
16dd	.	.	16f
16b-	.	.	16d
16a	.	.	16c
8g#	8e	.	16B
.	.	.	16g#
8ee	8b	.	16f#
.	.	.	16e
16dd	8a	.	8f#
16cc	.	.	.
16b	8b	.	8g#
16dd	.	.	.
=21	=21	=21	=21
16cc	[2a	1r	8r
16b	.	.	.
16cc	.	.	8A
16dd	.	.	.
16ee	.	.	8A
16cc	.	.	.
16b	.	.	8A
16a	.	.	.
8dd	16a]	.	8B
.	16f#	.	.
8cc	16g#	.	8E
.	16a	.	.
8b	16g#	.	16e
.	16b	.	16d
[8ee	16a	.	16c
.	16g#	.	16B
=22	=22	=22	=22
16ee]	4a	1r	8c
16dd	.	.	.
16cc	.	.	8A
16ee	.	.	.
8r	16dd	.	8f
.	16ee	.	.
8ff	16dd	.	8A
.	16cc	.	.
4bb	16b	.	8G#
.	16dd	.	.
.	16cc	.	8f
.	16b	.	.
8r	16cc	.	8e
.	16dd	.	.
8ee	16cc	.	8G
.	16b	.	.
=23	=23	=23	=23
4aa	16a	1r	8F#
.	16cc	.	.
.	16b	.	8e
.	16a	.	.
8r	16b	.	8d
.	16cc	.	.
8dd	16b	.	8F
.	16a	.	.
[4ee	16g#	.	8E
.	16b	.	.
.	16a	.	8d
.	16g#	.	.
8ee]	8a	.	8c
16dd	8f#	.	16B
16cc	.	.	16A
=24	=24	=24	=24
8b	8g#	1r	16d
.	.	.	16c
8cc	[8a	.	16B
.	.	.	16A
4dd	16a]	.	8.B
.	16f#	.	.
.	16g#	.	.
.	16b	.	32A
.	.	.	32B
16cc	4e	.	8.A
16a	.	.	.
16cc	.	.	.
16dd	.	.	16B
16ee	4r	.	16c
16a	.	.	16A
16g	.	.	16B
16a	.	.	16c#
=25	=25	=25	=25
16f	1r	1r	16d
16d	.	.	16A
16f	.	.	16d
16g	.	.	16e
8a	.	.	16f
.	.	.	16d
8dd	.	.	16f
.	.	.	16g
16cc#	.	.	8.a
16a	.	.	.
16cc#	.	.	.
16dd	.	.	16b
8ee	.	.	16cc#
.	.	.	16a
8dd	.	.	16b
.	.	.	16g#
=26	=26	=26	=26
8.cc#	1r	1r	16a
.	.	.	32a
.	.	.	32b-
.	.	.	32a
.	.	.	32g
16cc#	.	.	32f
.	.	.	32e
32dd	.	.	16f
32ee	.	.	.
32ff	.	.	16a
32gg	.	.	.
16aa	.	.	16d
16dd	.	.	16f
16b-	.	.	16g
32g	.	.	16G
32a	.	.	.
16b-	.	.	16g
16dd	.	.	16f
32cc	.	.	16e
32dd	.	.	.
32ee	.	.	16g
32ff	.	.	.
16gg	.	.	16c
16cc	.	.	16e
=27	=27	=27	=27
16a	1r	1r	16f
32f	.	.	16F
32g	.	.	.
32a	.	.	16f
32b-	.	.	.
16cc	.	.	16e
32b-	.	.	32d
32cc	.	.	32e
32dd	.	.	16f
32ee	.	.	.
16ff	.	.	16B-
16b-	.	.	16d
16g	.	.	16e
32e	.	.	16E
32f	.	.	.
32g	.	.	16e
32a	.	.	.
16b-	.	.	16d
16a	.	.	32c#
.	.	.	32d
16g	.	.	16e
16f	.	.	16A
16e	.	.	16c#
=28	=28	=28	=28
16f	8r	1r	16D
16e	.	.	16A
16f	8d	.	16F
16g	.	.	16E
16f	8d	.	16D
16a	.	.	16F
16g	8d	.	16E
16f	.	.	16D
4a	8e	.	16C#
.	.	.	16E
.	8A	.	16C#
.	.	.	16BB
4cc#	16a	.	8AA
.	16g	.	.
.	16f	.	8A
.	16e	.	.
=29	=29	=29	=29
4dd	8f	1r	16D
.	.	.	16E
.	8d	.	16F
.	.	.	16D
8r	8b-	.	16G
.	.	.	16A
8b-	8d	.	16G
.	.	.	16F
4b-	8c#	.	16E
.	.	.	16G
.	8b-	.	16F
.	.	.	16E
8r	8a	.	16F
.	.	.	16G
8a	8c	.	16F
.	.	.	16E
=30	=30	=30	=30
4a	8B	1r	16D
.	.	.	16F
.	8a	.	16E
.	.	.	16D
8r	8g	.	16E
.	.	.	16F
8g	8B-	.	16E
.	.	.	16D
4g	8A	.	16C#
.	.	.	16E
.	8g	.	16D
.	.	.	16C#
8r	8f	.	8D
[8dd	16e	.	8C
.	16d	.	.
=31	=31	=31	=31
4dd_	16g	1r	8.BB-
.	16f	.	.
.	16e	.	.
.	16d	.	16AA
8dd]	8.e	.	16GG
.	.	.	16BB-
8cc#	.	.	16AA
.	32d	.	16GG
.	32e	.	.
8cc	8d	.	16FF#
.	.	.	16AA
8dd	8f#	.	16FF#
.	.	.	16DD
16b-	4d	.	8GG
16dd	.	.	.
16b-	.	.	16G
16g	.	.	16F
=32	=32	=32	=32
16cc	4g	1r	16E
16ee	.	.	16G
16cc	.	.	16E
16g	.	.	16C
16a	4c	.	16F
16cc	.	.	16FF
16a	.	.	16F
16f	.	.	16E-
16b-	4f	.	16D
16dd	.	.	16F
16b-	.	.	16D
16f	.	.	16BB-
16g	4B-	.	16E
16b-	.	.	16EE
16g	.	.	16E
16e	.	.	16D
=33	=33	=33	=33
16a	8e	1r	16C#
16g	.	.	16E
16f	8c#	.	16AA
16e	.	.	16C#
16f	4A	.	16D
16e	.	.	16C#
16f	.	.	16D
16g	.	.	16E
8a	8d	.	16F
.	.	.	16E
8dd	8a	.	16F
.	.	.	16G
16cc#	4e	.	16A
16b	.	.	16G
16cc#	.	.	16A
16dd	.	.	16B
=34	=34	=34	=34
8ee	8a	1r	16c#
.	.	.	16e
16aa	8cc#	.	16A
16gg	.	.	16c#
16ff	8a	.	16B
16ee	.	.	16c
16gg	16dd	.	16B-
16ff	16cc	.	16A
16ee	16b	.	16G
16dd	16a	.	16F
16cc#	16g	.	16E
16b	16f	.	16D
16a	8e	.	16C#
16g	.	.	16AA
16f	8A	.	16BB
16e	.	.	16C#
=35	=35	=35	=35
8f	8A	2r	8D
8e	8G	.	8AA
4d	4F	.	4DD
2r	2r	8r	2r
.	.	16A	.
.	.	16G	.
.	.	16F	.
.	.	16E	.
.	.	8D	.
=36	=36	=36	=36
1r	1r	8C#	1r
.	.	16A	.
.	.	16G	.
.	.	16F	.
.	.	16E	.
.	.	16D	.
.	.	16C#	.
.	.	16D	.
.	.	16E	.
.	.	16F	.
.	.	16D	.
.	.	16G	.
.	.	16A	.
.	.	8B-	.
=37	=37	=37	=37
1r	1r	16E	1r
.	.	16F	.
.	.	16G	.
.	.	16E	.
.	.	16F	.
.	.	16G	.
.	.	8A	.
.	.	16D	.
.	.	16E	.
.	.	16F	.
.	.	16D	.
.	.	16E	.
.	.	16F	.
.	.	8G	.
=38	=38	=38	=38
1r	1r	16C#	1r
.	.	16D	.
.	.	16E	.
.	.	16C#	.
.	.	16D	.
.	.	16A	.
.	.	16G	.
.	.	16F	.
.	.	8E	.
.	.	8D	.
.	.	8.D	.
.	.	16C#	.
=39	=39	=39	=39
1r	8r	16D	1r
.	.	16E	.
.	8d	16F	.
.	.	16D	.
.	16c	8A	.
.	16B	.	.
.	8A	8F	.
.	8G#	16E	.
.	.	16D	.
.	16e	16C	.
.	16d	16BB	.
.	16c	16AA	.
.	16B	16GG#	.
.	16A	16AA	.
.	16G#	16BB	.
=40	=40	=40	=40
1r	16A	8C	1r
.	16B	.	.
.	16c	8A	.
.	16A	.	.
.	16d	16F	.
.	16e	16A	.
.	8f	16D	.
.	.	16A	.
.	16B	16G	.
.	16c	16A	.
.	16d	16G	.
.	16B	16F	.
.	16c	16E	.
.	16d	16G	.
.	8e	16C	.
.	.	16G	.
=41	=41	=41	=41
1r	16A	16F	1r
.	16B	16G	.
.	16c	16F	.
.	16A	16E	.
.	16B	16D	.
.	16c	16F	.
.	8d	16BB	.
.	.	16F	.
.	16G#	16E	.
.	16A	16F	.
.	16B	16E	.
.	16G#	16D	.
.	16A	16C	.
.	16e	16BB	.
.	16d	16C	.
.	16c	16D	.
=42	=42	=42	=42
1r	8B	16E	1r
.	.	16C	.
.	8A	16F	.
.	.	16E	.
.	8.A	8D	.
.	.	8E	.
.	16G#	.	.
.	16A	16F	.
.	16c	16E	.
.	16B	16D	.
.	16A	16C	.
.	16d	16BB	.
.	16c	16E	.
.	16B	16D	.
.	16c	16E	.
=43	=43	=43	=43
8r	[4A	8AA	1r
16a	.	8C#	.
16g	.	.	.
16f	16A]	4D	.
16e	16G	.	.
8d	8F	.	.
8c#	8G	16E	.
.	.	16D	.
16a	8E	8C#	.
16g	.	.	.
16f	8F	8D	.
16e	.	.	.
16d	8G	8E	.
16c#	.	.	.
=44	=44	=44	=44
16d	8A	16F	1r
16e	.	16E	.
16f	8F	16D	.
16d	.	16C	.
16g	8D	16BB-	.
16a	.	16AA	.
8b-	8BB-	8GG	.
16e	8B-	16G	.
16f	.	16F	.
16g	8G	16E	.
16e	.	16D	.
16f	8A	16C	.
16g	.	16BB-	.
8a	8F	8AA	.
=45	=45	=45	=45
16d	8B-	16B-	1r
16e	.	16A	.
16f	8B-	16G	.
16d	.	16F	.
16e	8G	16E	.
16f	.	16D	.
8g	8E	8C#	.
16c#	8A	16A	.
16d	.	16G	.
16e	8A	16F	.
16c#	.	16E	.
16d	4A	8F	.
16a	.	.	.
16g	.	16E	.
16f	.	16D	.
=46	=46	=46	=46
8e	8A	16C#	1r
.	.	16A	.
8d	8A	16F	.
.	.	16D	.
8.d	16G	4E	.
.	16F	.	.
.	16G	.	.
16c#	16A	.	.
16d	8F	4.D	.
16a	.	.	.
16f	8d	.	.
16d	.	.	.
16g	8B-	.	.
16e	.	.	.
16a	8A	8C	.
16g	.	.	.
=47	=47	=47	=47
8f	8A	8D	8r
8dd	8f	8A	8AA
16cc	8e	8A	8AA
16b	.	.	.
8a	8c	8E	8AA
8g#	8d	8D	8BB
16ee	8g#	8E	8EE
16dd	.	.	.
16cc	8a	4E	16E
16b	.	.	16D
16a	16e	.	16C
16g#	16d	.	16BB
=48	=48	=48	=48
16a	4e	1r	8C
16b	.	.	.
16cc	.	.	8AA
16a	.	.	.
16dd	4a	.	8F
16ee	.	.	.
8ff	.	.	8AA
16b	8r	.	8GG#
16cc	.	.	.
16dd	8g#	.	8F
16b	.	.	.
16cc	8a	.	8E
16dd	.	.	.
8ee	8b	.	8GG
=49	=49	=49	=49
16a	4c	1r	8FF#
16b	.	.	.
16cc	.	.	8E
16a	.	.	.
16b	8r	.	8D
16cc	.	.	.
8dd	8a	.	8FF
16g#	8B	.	8EE
16a	.	.	.
16b	8e	.	8D
16g#	.	.	.
16a	4e	.	8C
16ee	.	.	.
16dd	.	.	16BB
16cc	.	.	16AA
=50	=50	=50	=50
8b	16f	1r	16D
.	16e	.	16C
8a	16d	.	16BB
.	16c	.	16AA
8.a	16d	.	8.BB
.	16B	.	.
.	16e	.	.
16g#	16d	.	32AA
.	.	.	32BB
2a	8c	.	16AA
.	.	.	16G
.	8c#	.	16F
.	.	.	16E
.	16d	.	16F
.	16e	.	16A
.	16f	.	16D
.	[16d	.	16F
=51	=51	=51	=51
8b-	8d]	1r	16FF
.	.	.	16F
[8g	8B	.	16E
.	.	.	16D
4g]	16c	.	16E
.	16d	.	16G
.	16e	.	16C
.	[16c	.	16E
8a	8c]	.	16FF
.	.	.	16E
[8f	8A	.	16D
.	.	.	16C
4f]	16B	.	16D
.	16c	.	16F
.	16d	.	16BB
.	16B	.	16D
=52	=52	=52	=52
8e	8B-	1r	16GG
.	.	.	16BB-
8d	8B-	.	16EE
.	.	.	16GG
8c#	8A	.	16AA
.	.	.	16BB
8a	8e	.	8C#
8g	8d	.	16BB
.	.	.	16D
8e	8A	.	16C#
.	.	.	16E
16f	4A	.	8D
16a	.	.	.
16e	.	.	8C#
16a	.	.	.
=53	=53	=53	=53
8d	1r	1r	16F
.	.	.	16A
8c#	.	.	16E
.	.	.	16A
16a	.	.	16F
16g	.	.	16E
16b-	.	.	16D
16a	.	.	16F
16g	.	.	16E
16f	.	.	16D
16a	.	.	16C#
16g	.	.	16E
16f	.	.	8D
16e	.	.	.
16d	.	.	8E
16c	.	.	.
=54	=54	=54	=54
8d	1r	8r	8F
8dd	.	16a	8r
.	.	16g	.
8dd	.	16f	4r
.	.	16e	.
8dd	.	8d	.
8ee	.	8c#	2r
8a	.	16a	.
.	.	16g	.
16aa	.	16f	.
16gg	.	16e	.
16ff	.	16d	.
16ee	.	16c#	.
=55	=55	=55	=55
8ff	1r	16d	1r
.	.	16e	.
8dd	.	16f	.
.	.	16d	.
8bb-	.	16g	.
.	.	16a	.
8dd	.	8b-	.
8cc#	.	16e	.
.	.	16f	.
8bb-	.	16g	.
.	.	16e	.
8aa	.	16f	.
.	.	16g	.
8cc	.	8a	.
=56	=56	=56	=56
8b	1r	16d	1r
.	.	16e	.
8aa	.	16f	.
.	.	16d	.
8gg	.	16e	.
.	.	16f	.
8b-	.	8g	.
8a	.	16c#	.
.	.	16d	.
8gg	.	16e	.
.	.	16c#	.
8ff	.	16d	.
.	.	16a	.
16ee	.	16g	.
16dd	.	16f	.
=57	=57	=57	=57
16gg	2r	8e	2r
16ff	.	.	.
16ee	.	8d	.
16dd	.	.	.
8.ee	.	8.d	.
16dd	.	16c#	.
8dd	8r	8d	8r
16aa	8a	16f	8D
16gg	.	16e	.
16ff	8a	16d	8D
16ee	.	16e	.
8dd	8a	8f	8D
=58	=58	=58	=58
8cc#	8a	16e	8E
.	.	16g	.
16aa	8cc#	16f	8AA
16gg	.	16e	.
16ff	4a	8d	16A
16ee	.	.	16G
16dd	.	16e	16A
16cc#	.	16g	16E
16dd	2r	16f	8F
16ee	.	16g	.
16ff	.	16a	8D
16dd	.	16f	.
16gg	.	16b-	8B-
16aa	.	16cc	.
8bb-	.	8dd	8D
=59	=59	=59	=59
16ee	1r	16g	8C#
16ff	.	16a	.
16gg	.	16b-	8B-
16ee	.	16g	.
16ff	.	16a	8A
16gg	.	16b-	.
8aa	.	8cc	8C
16dd	.	16f	8BB
16ee	.	16g	.
16ff	.	16a	8A
16dd	.	16f	.
16ee	.	16g	8G
16ff	.	16a	.
8gg	.	8b-	8BB-
=60	=60	=60	=60
8cc#	8a	16e	8AA
.	.	16d	.
8ee	8b-	16c#	8G
.	.	16e	.
[2dd	8a	8A	8F
.	8f	8d	8D
.	8b-	4d	16G
.	.	.	16E
.	8a	.	16F
.	.	.	16D
8dd]	16g	16B	8.E
.	16f	16G	.
8cc#	16e	8A	.
.	16f	.	16D
=61	=61	=61	=61
4dd	8f	8A	2D
.	16g	16B	.
.	16f	16A	.
[4ee	4e	16G#	.
.	.	16B	.
.	.	16E	.
.	.	16G#	.
16ee]	8r	[4A	4C
16cc	.	.	.
16b	8e	.	.
16a	.	.	.
8dd	8f	8A]	16BB
.	.	.	16E
8b	8e	8G#	16D
.	.	.	16E
=62	=62	=62	=62
8cc	8e	[4A	8AA
8cc#	8e	.	8GG
8dd	8f	16A]	16FF
.	.	16B	16GG
8ee	8g	16G	16EE
.	.	16A	16FF
8ff	8a	8F	8DD
16ee	8A	8r	8D
16dd	.	.	.
16cc	8A	4r	8A
16b	.	.	.
8a	8A	.	8F
=63	=63	=63	=63
8g#	8B	1r	8D
16ee	8E	.	8BB
16dd	.	.	.
16cc	16e	.	8E
16b	16d	.	.
16a	16c	.	8EE
16g#	16B	.	.
16a	8c	.	16AA
16b	.	.	16A
16cc	8A	.	16G
16a	.	.	16A
16dd	8f	.	16F
16ee	.	.	16A
8ff	8A	.	16D
.	.	.	16F
=64	=64	=64	=64
16b	8G#	1r	16EE
16cc	.	.	16E
16dd	8f	.	16D
16b	.	.	16E
16cc	8e	.	8AA
16dd	.	.	.
8ee	8G	.	8C#
16a	8F#	.	8D
16b	.	.	.
16cc	8e	.	8C
16a	.	.	.
16b	8d	.	8BB
16cc	.	.	.
8dd	8F	.	8AA
=65	=65	=65	=65
16g#	8E	1r	1E
16a	.	.	.
16b	8d	.	.
16g#	.	.	.
16a	8c	.	.
16ee	.	.	.
16dd	16B	.	.
16cc	16A	.	.
8b	16d	.	.
.	16c	.	.
8a	16B	.	.
.	16A	.	.
8.a	8.B	.	.
16g#	32A	.	.
.	32B	.	.
=66	=66	=66	=66
16a	16c	1r	4AA
16b	16d	.	.
16cc#	16e	.	.
16dd	16f	.	.
16ee	16g	.	4GG
16cc#	16e	.	.
16b	16d	.	.
16a	16c#	.	.
16dd	16f	.	8FF
16cc#	16e	.	.
16ee	16g	.	8EE
16dd	16f	.	.
16ff	16a	.	8DD
16ee	16g	.	.
16dd	16f	.	8D
16cc	16e	.	.
=67	=67	=67	=67
8b-	16g	4d	8GG
.	16f	.	.
8g	16e	.	8G
.	16d	.	.
16ee	4c	8g	8C
16dd	.	.	.
16cc	.	8e	8CC
16b-	.	.	.
8a	16f	4c	8FF
.	16e	.	.
8f	16d	.	8F
.	16c	.	.
16dd	4B-	8f	8BB-
16cc	.	.	.
16b-	.	8d	8B-
16a	.	.	.
=68	=68	=68	=68
8g	16e	4B	8E
.	16d	.	.
8e	16c#	.	8EE
.	16B	.	.
16cc#	8A	4e	8AA
16b	.	.	.
16a	8c#	.	8A
16g	.	.	.
8f	4d	8A	8d
8d	.	16A	8D
.	.	16G	.
8dd	8f	16F	8D
.	.	16E	.
8ff	8a	8D	8D
=69	=69	=69	=69
8ee	8g	8C#	8E
[8cc#	16a	16A	8AA
.	16b	16G	.
8cc#]	16a	16F	8A
.	16g	16E	.
8ee	16f	16D	16A
.	16e	16C#	16E
8a	8d	8D	8F
8dd	8f	8A	8D
8bb-	8r	8r	16r
.	.	.	16D
8dd	8a	8d	16F
.	.	.	16D
=70	=70	=70	=70
8cc#	4a	4e	4A
8bb-	.	.	.
8aa	8r	8r	16r
.	.	.	16F#
8cc	8a	8d	16A
.	.	.	16F#
8b	4g	4d	4G
8aa	.	.	.
8gg	8r	8r	16r
.	.	.	16E
8b-	8g	8c	16G
.	.	.	16E
=71	=71	=71	=71
8a	4f	4c	4F
8gg	.	.	.
8ff	8r	8r	16r
.	.	.	16D
8a	8f	8B	16F
.	.	.	16D
8g	4e	4B	4E
8ff	.	.	.
8ee	8r	8r	16r
.	.	.	16C#
8g	8e	8A	16E
.	.	.	16C#
=72	=72	=72	=72
8f	4d	8A	16D
.	.	.	16F
8a	.	16G	16E
.	.	16B	16G
4dd 4f 4a 4dd	4r	16A	16F
.	.	16B	16G
.	.	16G	16E
.	.	16A	16F
4dd 4f 4a 4dd	2r	16F	16D
.	.	16G	16E
.	.	16E	16C
.	.	16F	16D
4dd 4f 4a 4dd	.	16D	16BB-
.	.	16E	16C
.	.	16C	16AA
.	.	16D	16BB-
=73	=73	=73	=73
4ee- 4b- 4ee-	1r	4E- 4B-	4GG
16r	.	4r	4r
16ff	.	.	.
16ee	.	.	.
16dd	.	.	.
32ee	.	2r	2r
32gg	.	.	.
32bb-	.	.	.
32aa	.	.	.
32gg	.	.	.
32ff	.	.	.
32ee	.	.	.
32dd	.	.	.
32cc#	.	.	.
32ee	.	.	.
32gg	.	.	.
32ff	.	.	.
32ee	.	.	.
32dd	.	.	.
32cc#	.	.	.
32b	.	.	.
=74	=74	=74	=74
32a	1r	4r	4r
32cc#	.	.	.
32ee	.	.	.
32dd	.	.	.
32cc#	.	.	.
32b	.	.	.
32a	.	.	.
32g	.	.	.
[4f	.	4D 4B 4d	4GG#
12.f]	.	2r	2r
24f	.	.	.
24e	.	.	.
24d	.	.	.
24c#	.	.	.
24d	.	.	.
24B	.	.	.
24c#	.	.	.
24B	.	.	.
24A	.	.	.
=75	=75	=75	=75
4r	1r	24G#	4r
.	.	24A	.
.	.	24E	.
.	.	24F	.
.	.	24C#	.
.	.	24D	.
4d 4g# 4b 4dd	.	4D 4G 4B	4GG#
4e 4a 4cc#	.	4E 4A	4GG
4r	.	4r	4r
=76	=76	=76	=76
16r	2r	2r	2r
16ee	.	.	.
16dd	.	.	.
16cc#	.	.	.
16dd	.	.	.
16cc#	.	.	.
16b	.	.	.
16a	.	.	.
4.aa	8r	16c#	4G
.	.	16e	.
.	8a	16A	.
.	.	16c#	.
.	[4dd	16f	[4F
.	.	16a	.
8ff	.	16d	.
.	.	16f	.
=77	=77	=77	=77
4.gg	8.dd]	16B	4F]
.	.	16d	.
.	.	16G	.
.	16g	16B	.
.	[4cc	16e	2E
.	.	16g	.
8ee	.	16c	.
.	.	16e	.
4.ff	8.cc]	16A	.
.	.	16c	.
.	.	16F	.
.	16f	16A	.
.	[4b	16d	[4D
.	.	16f	.
8dd	.	16B	.
.	.	16d	.
=78	=78	=78	=78
4.ee	8.b]	16G	4D]
.	.	16B	.
.	.	16E	.
.	16e	16G	.
.	[4a	16c	2C
.	.	16e	.
8cc	.	16A	.
.	.	16c	.
4.dd	8.a]	16F	.
.	.	16A	.
.	.	16D	.
.	16d	16F	.
.	[4g	16B	[4BB
.	.	16d	.
8b	.	16G	.
.	.	16B	.
=79	=79	=79	=79
4.cc	8.g]	16E	4BB]
.	.	16G	.
.	.	16C	.
.	16c	16E	.
.	[4f	16A	2AA
.	.	16c	.
8a	.	16F	.
.	.	16A	.
4.b-	8.f]	16D	.
.	.	16F	.
.	.	16BB-	.
.	16B-	16D	.
.	4e	16G	[4GG
.	.	16B-	.
8g	.	16E	.
.	.	16G	.
=80	=80	=80	=80
2c# 2e 2a	1r	2C# 2E 2A	2GG]
4r	.	4r	4r
8r	.	8r	8r
8e 8b 8dd	.	8E	8GG#
=81	=81	=81	=81
4dd	8e	4E	2AA
.	8b-	.	.
4cc#	8a	4A	.
.	8g	.	.
2dd	2f# 2a	2D 2A	2DD
==	==	==	==
*-	*-	*-	*-
!!!ENC: Peter van Kranenburg (peter@musical-style-recognition.net)
!!!END: 2006-11-15
